X:1
T:Til Ole Bull
T:Til Ole Bull
T:1901
T:Edvard Grieg
T:J. S. Welhaven
C:Edvard Grieg
Z:J. S. Welhaven
%%score [ 1 2 3 4 ]
L:1/8
Q:1/4=60
M:6/8
K:Bb
V:1 treble-8 nm="T1"
V:2 treble-8 nm="T2"
V:3 bass nm="B1"
V:4 bass nm="B2"
V:1
"^Allegretto tranquillo"!p! D | d2 d ^c3/2 A/!<(! c | =c2!<)!!>(! c =B2!>)! d | %3
w: 1.Hvor|sødt at fav- nes af|Aft- nens Fred, naar|
w: 2.Han|stod og lyt- ted en|Som- mer- kvæld og|
w: 3.Og|al den Smer- te og|al den Lyst, som|
w: 4.Det|er den dei- lig- ste|Stren- ge- klang, der|
w: 5.O,|hil dig sa- li- ge|To- ne- skald med|
 f2 f (d3/2!<(! =B/) d!<)! |!>(! f3!>)! d2!mf! G | g2!<(! g ^f3/2 d/ f!<)! | %6
w: Dros- len fløj- ter i|Sko- ven og|Bir- ken su- ser ved|
w: hav- de stemt si- ne|Stren- ge, da|gik Ak- kor- den fra|
w: bor i Nor- * dens|So- ne, har|lagt sig drøm- men- de|
w: let- ter Læng- se- lens|Vin- ger, da|nyn- ner Hjer- tet sin|
w: Gud- doms- magt i din|Bu- e! Fra|dig gaar Ju- be- lens|
!>(! g2 =e!>)! d2!p! d |"^cresc." d^f g !>!a3/2 f/ =e |!f! !>!=e3!>(! d2 z!>)! | %9
w: El- vens Bred, og|Nøk- * ken spil- ler i|Vo- ven!|
w: Skov og Fjeld og|o- * ver dug- ge- de|En- ge.|
w: til hans Bryst og|sit- * tred gjen- nem hans|To- ne.|
w: e- gen Sang, mens|Stren- * gen bæ- ver og|klin- ger.|
w: Fos- se- fald, du|tæn- * der An- dag- tens|Lu- e.|
!p! d!<(! d d!<)! !>!d3/2 c/!<(! c/ B/!<)! | !>!e3-!>(! e2 e!>)! |"^cresc." ed B g2 g | %12
w: Der er en ve- mod- blan- det|Fryd, _ som|Nor- * dens Al- ver|
w: Og al- le Stren- ge klang der-|til _ med|un- * der- ba- re|
w: O, hør den stil- le Me- lo-|di, _ der|dæm- * per Stor- mens|
w: Der er ei Savn, der er ei|Nag, _ som|ei _ hans Streng kan|
w: Naar Ver- den lyt- ter til dit|Kvad _ og|bæ- * ver ved din|
 !>!g3!>(! ^f2!ppp! f!>)! | =eg e ^f2 f | =eg e ^f2 e |"^cresc." d=B c dg ^f | !>!=e3 d2 g | %17
w: ma- le, med|dæm- * pet Kvad, med|Har- * pe- lyd, med|Suk _ i dun- * kle|Da- le, med|
w: To- ner, som|Dros- * lens Kluk og|Nøk- * kens Spil og|Sus _ af Bir- * ke-|kro- ner, med|
w: Har- me. Din|Barn- * dom vug- ger|sig _ der- i paa|øm- * me Lil- * je-|ar- me, paa|
w: lin- dre, Han|væk- * ker med sit|Tryl- * le- slag en|Vaar- * dag i _ det|In- dre, en|
w: Væl- de, da|skjæl- * ver Glem- mi-|ei- * ens Blad af|Fryd _ paa di- * ne|Fjel- de, af|
"^cresc." d=B c dg ^f |!f! a6 | g3- g2 |] %20
w: Suk _ i dun- * kle|Da-|le. _|
w: Sus _ af Bir- * ke-|kro-|ner. _|
w: øm- * me Lil- * je-|ar-|me. _|
w: Vaar- * dag i _ det|In-|dre. _|
w: Fryd _ paa di- * ne|Fjel-|de. _|
V:2
!p! D | =B2 B A3/2 A/!<(! A | _A2!<)!!>(! A G2!>)! =B | d2 d (=B3/2!<(! B/) B!<)! | %4
w: 1.Hvor|sødt at fav- nes af|Aft- nens Fred, naar|Dros- len fløj- ter i|
w: 2.Han|stod og lyt- ted en|Som- mer- kvæld og|hav- de stemt si- ne|
w: 3.Og|al den Smer- te og|al den Lyst, som|bor i Nor- * dens|
w: 4.Det|er den dei- lig- ste|Stren- ge- klang, der|let- ter Læng- se- lens|
w: 5.O,|hil dig sa- li- ge|To- ne- skald med|Gud- doms- magt i din|
!>(! (d2 c)!>)! =B2!mf! G | e2!<(! d c3/2 d/ e!<)! |!>(! c2 c!>)! B2!p! B | %7
w: Sko- * ven og|Bir- ken su- ser ved|El- vens Bred, og|
w: Stren- * ge, da|gik Ak- kor- den fra|Skov og Fjeld og|
w: So- * ne, har|lagt sig drøm- men- de|til hans Bryst og|
w: Vin- * ger, da|nyn- ner Hjer- tet sin|e- gen Sang, mens|
w: Bu- * e! Fra|dig gaar Ju- be- lens|Fos- se- fald, du|
"^cresc." Ad d !>!^f3/2 ^c/ c |!f! (!>!^c2 =B)!>(! A2 z!>)! | %9
w: Nøk- * ken spil- ler i|Vo- * ven!|
w: o- * ver dug- ge- de|En- * ge.|
w: sit- * tred gjen- nem hans|To- * ne.|
w: Stren- * gen bæ- ver og|klin- * ger.|
w: tæn- * der An- dag- tens|Lu- * e.|
!p! d!<(! d d!<)! !>!_B3/2 A/!<(! A/ G/!<)! | (!>!B3!>(! A2) A!>)! |"^cresc." AB G c2 c | %12
w: Der er en ve- mod- blan- det|Fryd, _ som|Nor- * dens Al- ver|
w: Og al- le Stren- ge klang der-|til _ med|un- * der- ba- re|
w: O, hør den stil- le Me- lo-|di, _ der|dæm- * per Stor- mens|
w: Der er ei Savn, der er ei|Nag, _ som|ei _ hans Streng kan|
w: Naar Ver- den lyt- ter til dit|Kvad _ og|bæ- * ver ved din|
 !>!d3!>(! d2!ppp! d!>)! | c2 c d2 d | c2 c d2 c |"^cresc." =BG A Bd d | !>!c3 =B2 B | %17
w: ma- le, med|dæm- pet Kvad, med|Har- pe- lyd, med|Suk _ i dun- * kle|Da- le, med|
w: To- ner, som|Dros- lens Kluk og|Nøk- kens Spil og|Sus _ af Bir- * ke-|kro- ner, med|
w: Har- me. Din|Barn- dom vug- ger|sig der- i paa|øm- * me Lil- * je-|ar- me, paa|
w: lin- dre, Han|væk- ker med sit|Tryl- le- slag en|Vaar- * dag i _ det|In- dre, en|
w: Væl- de, da|skjæl- ver Glem- mi-|ei- ens Blad af|Fryd _ paa di- * ne|Fjel- de, af|
"^cresc." =BG A Bd d |!f! (^f3- f2 =e) | d3- d2 |] %20
w: Suk _ i dun- * kle|Da- * *|le. _|
w: Sus _ af Bir- * ke-|kro- * *|ner. _|
w: øm- * me Lil- * je-|ar- * *|me. _|
w: Vaar- * dag i _ det|In- * *|dre. _|
w: Fryd _ paa di- * ne|Fjel- * *|de. _|
V:3
!p! D, | D,2 D, D,3/2 D,/!<(! D, | F,2!<)!!>(! E, D,2!>)! G, | A,2 A, (G,3/2!<(! G,/) G,!<)! | %4
w: 1.Hvor|sødt at fav- nes af|Aft- nens Fred, naar|Dros- len fløj- ter i|
w: 2.Han|stod og lyt- ted en|Som- mer- kvæld og|hav- de stemt si- ne|
w: 3.Og|al den Smer- te og|al den Lyst, som|bor i Nor- * dens|
w: 4.Det|er den dei- lig- ste|Stren- ge- klang, der|let- ter Læng- se- lens|
w: 5.O,|hil dig sa- li- ge|To- ne- skald med|Gud- doms- magt i din|
!>(! A,3!>)! G,2!mf! G, | G,2!<(! G, _A,3/2 A,/ A,!<)! |!>(! G,2 =A,!>)! B,2!p! G, | %7
w: Sko- ven og|Bir- ken su- ser ved|El- vens Bred, og|
w: Stren- ge, da|gik Ak- kor- den fra|Skov og Fjeld og|
w: So- ne, har|lagt sig drøm- men- de|til hans Bryst og|
w: Vin- ger, da|nyn- ner Hjer- tet sin|e- gen Sang, mens|
w: Bu- e! Fra|dig gaar Ju- be- lens|Fos- se- fald, du|
"^cresc." ^F,A, =B, !>!_D3/2 A,/ G, |!f! !>!G,3!>(! ^F,2 z!>)! | %9
w: Nøk- * ken spil- ler i|Vo- ven!|
w: o- * ver dug- ge- de|En- ge.|
w: sit- * tred gjen- nem hans|To- ne.|
w: Stren- * gen bæ- ver og|klin- ger.|
w: tæn- * der An- dag- tens|Lu- e.|
!p! D,!<(! D, D,!<)! !>!E,3/2 E,/!<(! E,/ E,/!<)! | !>!^F,3-!>(! F,2 F,!>)! | %11
w: Der er en ve- mod- blan- det|Fryd, _ som|
w: Og al- le Stren- ge klang der-|til _ med|
w: O, hør den stil- le Me- lo-|di, _ der|
w: Der er ei Savn, der er ei|Nag, _ som|
w: Naar Ver- den lyt- ter til dit|Kvad _ og|
"^cresc." ^F,G, B, A,2 A, | !>!A,3!>(! A,2!ppp! A,!>)! | A,2 A, A,2 A, | A,2 A, A,2 ^F, | %15
w: Nor- * dens Al- ver|ma- le, med|dæm- pet Kvad, med|Har- pe- lyd, med|
w: un- * der- ba- re|To- ner, som|Dros- lens Kluk og|Nøk- kens Spil og|
w: dæm- * per Stor- mens|Har- me. Din|Barn- dom vug- ger|sig der- i paa|
w: ei _ hans Streng kan|lin- dre, Han|væk- ker med sit|Tryl- le- slag en|
w: bæ- * ver ved din|Væl- de, da|skjæl- ver Glem- mi-|ei- ens Blad af|
"^cresc." G,2 G, G,=B, A, | (!>!G,2 A,) =B,2 G, |"^cresc." ^F,G, G, G,=B, A, |!f! C6 | =B,3- B,2 |] %20
w: Suk i dun- * kle|Da- * le, med|Suk _ i dun- * kle|Da-|le. _|
w: Sus af Bir- * ke-|kro- * ner, med|Sus _ af Bir- * ke-|kro-|ner. _|
w: øm- me Lil- * je-|ar- * me, paa|øm- * me Lil- * je-|ar-|me. _|
w: Vaar- dag i _ det|In- * dre, en|Vaar- * dag i _ det|In-|dre. _|
w: Fryd paa di- * ne|Fjel- * de, af|Fryd _ paa di- * ne|Fjel-|de. _|
V:4
!p! D, | G,,2 G,, G,,3/2 G,,/!<(! G,, | G,,2!<)!!>(! G,, G,,2!>)! G, | %3
w: 1.Hvor|sødt at fav- nes af|Aft- nens Fred, naar|
w: 2.Han|stod og lyt- ted en|Som- mer- kvæld og|
w: 3.Og|al den Smer- te og|al den Lyst, som|
w: 4.Det|er den dei- lig- ste|Stren- ge- klang, der|
w: 5.O,|hil dig sa- li- ge|To- ne- skald med|
 D,2 D, (G,3/2!<(! G,/) G,!<)! |!>(! D,3!>)! G,2!mf! G, | C,2!<(! D, E,3/2 D,/ C,!<)! | %6
w: Dros- len fløj- ter i|Sko- ven og|Bir- ken su- ser ved|
w: hav- de stemt si- ne|Stren- ge, da|gik Ak- kor- den fra|
w: bor i Nor- * dens|So- ne, har|lagt sig drøm- men- de|
w: let- ter Læng- se- lens|Vin- ger, da|nyn- ner Hjer- tet sin|
w: Gud- doms- magt i din|Bu- e! Fra|dig gaar Ju- be- lens|
!>(! E,2 ^F,!>)! G,2!p! G,, |"^cresc." A,,2 A, !>!A,3/2 A,/ A,, |!f! !>!A,,3!>(! D,2 z!>)! | %9
w: El- vens Bred, og|Nøk- ken spil- ler i|Vo- ven!|
w: Skov og Fjeld og|o- ver dug- ge- de|En- ge.|
w: til hans Bryst og|sit- tred gjen- nem hans|To- ne.|
w: e- gen Sang, mens|Stren- gen bæ- ver og|klin- ger.|
w: Fos- se- fald, du|tæn- der An- dag- tens|Lu- e.|
!p! D,!<(! D, D,!<)! !>!^F,,3/2 F,,/!<(! G,,/ G,,/!<)! | !>!C,3-!>(! C,2 C,!>)! | %11
w: Der er en ve- mod- blan- det|Fryd, _ som|
w: Og al- le Stren- ge klang der-|til _ med|
w: O, hør den stil- le Me- lo-|di, _ der|
w: Der er ei Savn, der er ei|Nag, _ som|
w: Naar Ver- den lyt- ter til dit|Kvad _ og|
"^cresc." B,,2 G, E,2 E, | !>!D,3!>(! D,2!ppp! D,!>)! | A,,2 A,, D,2 D, | A,,2 A,, D,2 ^F, | %15
w: Nor- dens Al- ver|ma- le, med|dæm- pet Kvad, med|Har- pe- lyd, med|
w: un- der- ba- re|To- ner, som|Dros- lens Kluk og|Nøk- kens Spil og|
w: dæm- per Stor- mens|Har- me. Din|Barn- dom vug- ger|sig der- i paa|
w: ei hans Streng kan|lin- dre, Han|væk- ker med sit|Tryl- le- slag en|
w: bæ- ver ved din|Væl- de, da|skjæl- ver Glem- mi-|ei- ens Blad af|
"^cresc.""^cresc." G,^F, =E, D,D, D, | (!>!=E,2 ^F,) G,2 E, |"^cresc." =B,,=E, A,, D,D, D, | %18
w: Suk _ i dun- * kle|Da- * le, med|Suk _ i dun- * kle|
w: Sus _ af Bir- * ke-|kro- * ner, med|Sus _ af Bir- * ke-|
w: øm- * me Lil- * je-|ar- * me, paa|øm- * me Lil- * je-|
w: Vaar- * dag i _ det|In- * dre, en|Vaar- * dag i _ det|
w: Fryd _ paa di- * ne|Fjel- * de, af|Fryd _ paa di- * ne|
!f! D,6 | G,3- G,2 |] %20
w: Da-|le. _|
w: kro-|ner. _|
w: ar-|me. _|
w: In-|dre. _|
w: Fjel-|de. _|

